X:1
T:James Gibb editions
T:Deh lasciatemi stare - Antonelli da Rimini
%%score [ 1 2 3 ]
L:1/8
Q:1/4=90
M:2/2
K:C
V:1 treble-8 nm="Tenor I" snm="T I"
V:2 treble-8 nm="Tenor II" snm="T II"
V:3 bass nm="Bass" snm="B"
V:1
"^Cornelio Antonelli da Rimini\n(C16th)" e4 d2 c2- |"^Deh, lasciatemi stare" cc c2 B4 | %2
w: Deh, la- scia\-|* te- mi star|
w: Deh, pen- sa\-|* te- ci~~un po-|
 B2 A2 B2 c2 | (B-ABc B2) B2 | c2 d2 B4 | ^c4 ::[M:2/2][K:treble-8] z2 A2 B2 c2 | d2 d2 B4 | %8
w: tan- ti pen- sie-|ri, * * * * tan-|ti pen- sie-|ri|Non mi da-|te più~~af- fan'|
w: co,~~o vi- ta mi-|a, * * * * o|vi- ta mi-|a|Al- li tor-|men- ti che|
 A2 c4 c2 | B4 B4 | e4 f4 | e2 d4 d2 | e4 z2 e2 | f2 e2 d2 d2 | e4 c2 d2- | d2 c2 B4 | ^c8 :| %17
w: a que- sto|co- re|Che l'ho|ven- du- to~~al|suo, Che|l'ho ven- du- to~~al|suo~~an- ti- co|* si- gno-|re.|
w: pa- to~~ad- ogn'|ho- ra|E non|com- por- tar|tu, E|non com- por- tar|tu al fin|* ch'io mo-|ra.|
V:2
 c4 B2 A2- | AA A2 G4 | G2 ^F2 G2 A2 | ^G6 G2 | A2 A2 (A2 ^G2) | A4 :: %6
w: Deh, la- scia\-|* te- mi star|tan- ti pen- sie-|ri, tan-|ti pen- sie\- *|ri|
w: Deh, pen- sa\-|* te- ci~~un po-|co,~~o vi- ta mi-|a, o|vi- ta mi\- *|a|
[M:2/2][K:treble-8] z2 ^F2 G2 A2 | B2 B2 ^G4 | A2 A4 A2 | ^G4 G4 | c4 d4 | c2 B4 B2 | c4 z2 c2 | %13
w: Non mi da-|te più~~af- fan'|a que- sto|co- re|Che l'ho|ven- du- to~~al|suo, Che|
w: Al- li tor-|men- ti che|pa- to~~ad- ogn'|ho- ra|E non|com- por- tar|tu, E|
 d2 c2 B2 B2 | c4 A2 A2- | A2 A2 (A2 ^G2) | A8 :| %17
w: l'ho ven- du- to~~al|suo~~an- ti- co|* si- gno\- *|re.|
w: non com- por- tar|tu al fin|* ch'io mo\- *|ra.|
V:3
 C,4 G,,2 A,,2- | A,,A,, A,,2 E,4 | E,2 D,2 E,2 F,2 | E,6 E,2 | F,2 D,2 E,4 | A,,4 :: %6
w: Deh, la- scia\-|* te- mi star|tan- ti pen- sie-|ri, tan-|ti pen- sie-|ri|
w: Deh, pen- sa\-|* te- ci~~un po-|co,~~o vi- ta mi-|a, o|vi- ta mi-|a|
[M:2/2] z2 D,2 E,2 F,2 | G,2 G,2 E,4 | A,,2 A,,4 A,,2 | E,4 E,4 | C,4 D,4 | C,2 G,4 G,2 | %12
w: Non mi da-|te più~~af- fan'|a que- sto|co- re|Che l'ho|ven- du- to~~al|
w: Al- li tor-|men- ti che|pa- to~~ad- ogn'|ho- ra|E non|com- por- tar|
 C,4 z2 C,2 | D,2 C,2 G,2 G,2 | C,4 F,2 D,2- | D,2 A,,2 E,4 | A,,8 :| %17
w: suo, Che|l'ho ven- du- to~~al|suo~~an- ti- co|* si- gno-|re.|
w: tu, E|non com- por- tar|tu al fin|* ch'io mo-|ra.|

